archdroid-icon-theme/Archdroid-Red/places/scalable/folder-collection-debian-debianred.svg

<svg fill="#F44336" height="48" viewBox="0 0 48 48" width="48" xmlns="http://www.w3.org/2000/svg"><g fill="#d70a53"><path d="m8 12h-4v28c0 2.21 1.79 4 4 4h28v-4h-28z"/><path d="m16 4c-2.21 0-4 1.79-4 4v24c0 2.21 1.79 4 4 4h24c2.21 0 4-1.79 4-4v-24c0-2.21-1.79-4-4-4zm13.451172 3c-.295303.067125-.701617.021682-.980469.123047l-.167969-.023438c.378294-.048893.762799-.067243 1.148438-.099609zm-1.683594.177734c-.197869.110642-.394604.197972-.580078.328125.751643-.179312.717958.07129 1.484375-.029296-.269355.039476-.595183.146736-.542969.1875.858965.099623.989776-.264898 1.785157 0l-.048829-.236329c1.104581.398953 1.334626.331987 2.535157.96875.421907.02043.464569-.259158 1.101562 0 .112019.196722-.025978.231745.75586.697266.087227-.034662-.155296-.255578-.347657-.431641 1.572168.839683 3.281663 2.631652 3.802735 4.548829-.487788-.899366-.051181.459142-.21875.388671.217381.586493.395676 1.192615.505859 1.81836-.144385-.513956-.459888-1.753222-1.011719-2.552735-.044991.516022-.709764-.356272-.345703.779297.277523.402167.056413-.406215.398438.308594.005279.33973.133693.676344.208984 1.119141-.117528-.019282-.259623-.488264-.345703-.357422.118676.556881.312345.845976.386719.888672-.038105.093196-.135922-.085784-.142578.292968.04545.87205.244235.503374.33789.544922-.095032.429024-.478668.933652-.289062 1.671875-.054403-.223579-.161387-.448284-.242188-.660156-.074832.630336.140675.753646-.15039 1.517578.209805-.688641.185921-1.311048-.011719-1.011719.087457.978789-.774837 1.730751-.681641 2.34961l-.25-.345703c-.67877.984068-.017126.54154-.478515 1.287109.169405-.292902-.087783-.119476.132812-.451172-.146451.008493-.653502.623068-1.117187.984375-1.823752 1.461985-4.001675 1.652581-6.109375.865235-.081949.067257.377639.426071.714843.599609.802497.296804 1.711202.309601 2.425782.283203-1.544852.645945-4.494199-.657424-5.458985-2.384766.218299.047517.965755 1.214691 1.525391 1.404297-.330778-.265127-.587097-.602143-.824219-.949218.446928.513726.990376.932956 1.583984 1.210937-.019052-.072193.022616-.11514.033204-.164062.010587-.048923-.009794-.104416-.150391-.199219-1.787483-1.369248-2.843149-2.532369-2.476563-5.226563.272473-.205674.345417-1.328983.970704-1.722656.381048-.841979 1.523638-1.617437 2.74414-1.636719 1.245981-.068634 2.296031.664532 2.824219 1.355469-.961573-.896152-2.534562-1.168445-3.876953-.503906-1.372692.61794-2.187035 2.129625-2.06836 3.634765.05096-.075062.096533-.02914.121094-.214843-.042007 2.925347 3.151111 5.070136 5.451172 3.988281l.027344.060547c.93242-.254338.812198-.464119 1.421875-.882813-.047516.098246-.409822.348695-.19336.353516.296805-.078735 1.222313-.940782 1.677735-1.345703.208888-.450601-.110114-.244025.18164-.810547l.355469-.179688c.197666-.571696.416021-.894484.392578-1.558593l-.207031.435547c.306216-.927141.12872-1.935856.171875-2.808594l-.083984-.023438c-.074833-2.195617-1.972873-4.528947-3.66211-5.318359-1.455787-.672573-3.696935-.78786-4.732422-.28125.142549-.126251.710075-.180016.539063-.277344-1.621291.161142-1.259186.565349-2.501953.882813-.340878.32917.994332-.262666.27539.164062-.666604.183867-.977102-.115923-1.964843.90625.087916.142319.627417-.420384.177734.144531-.928288-.115232-2.933795 2.12288-3.359375 2.865235l.222656.039062c-.365439.915434-.844735 1.498487-.910156 2.046875-.094344 1.347671-.566089 3.808325.087891 4.564453l-.0625.63086c.089753.179046.157971.361268.269531.529297l-.146484.011718c.687952 2.169909.738166.039276 1.646484 2.292969-.13176-.044302-.263177-.092404-.455078-.351562-.022955.19764.278971.790221.638672 1.253906l-.152344.173828c.200165.363603.384561.443373.523437.570313-.747405-.407906.692113 1.34501.822266 1.568359l.115234-.205078c-.016527.29405.211715.674361.638672 1.201172l.355469-.013672c.146451.289459.68105.811376 1.005859.835937l-.214843.283203c.815351.258241.396235.342616 1.398437.697266l-.203125-.357422c.511431.443485.669159.830192 1.390625 1.169922 1.000366.348682 1.133392.210316 2.160156.503906-.870212-.02525-1.894078-.015644-2.582031-.261718-4.693548-1.271691-8.987848-6.776536-8.673828-12.447266-.072307-1.148194.115041-2.583355-.076172-2.869141.268341-.873656.579792-1.939243 1.205078-3.207031-.045221-.084932.101999.248762.419922-.292969.19282-.423514.35066-.889203.59375-1.300781l.125-.029297c.125103-.726287 1.694981-1.84156 2.16211-2.402344l.03125.214844c1.019418-.955834 2.836513-1.596395 3.859375-2.052734-.268571.297263.601393-.030255 1.228515-.06836zm.619141.142579c.735239.020888.682201.070251.441406.123046l-.009766.019532-.144531.013672.154297-.033204c.035809-.052566-.221271-.083564-.441406-.123046zm-9.708985 5.009765c-.004131.246534.413988-.243799.113282.433594-.561013.392296-.049008.161392-.113282-.433594zm-.457031 1.890625c-.049352.229547-.071937.466624-.201172.863281.037646-.310577-.156003-.406712.201172-.863281zm14.699219 2.75586c.051017-.001292.087406.126639.0625.498046-.074373.2991-.134039-.184668-.210938-.224609.03294-.141745.097421-.272146.148438-.273437zm4.511719 1.251953c-.110183.846569-.372999 1.68138-.779297 2.445312.367734-.723991.607649-1.503786.71875-2.292969zm-4.777344.277343c-.063126.383803-.242666.754709-.488281 1.09375.03007-.291524-.684593.127506.144531-.916015-.072078.29405-.771049 1.067523 0 .582031.139794-.249288.288659-.486146.34375-.759766zm-1.681641 1.59375c-.120282.114315-.25555.233459-.404297.34961-.538517-.082867-1.029683-.291137-.617187-.296875.343861.031448.686116.029443 1.021484-.052735zm-5.207031.054688c.095032.190294.180752.380445.324219.539062l.126953.375c-.173308-.292213-.360271-.579612-.451172-.914062zm-.316406.564453c.340418.657193.526332.857569.77539 1.34375-.346157-.287852-.560936-.686494-.832031-1.054687z"/></g></svg>

<svg fill="#F44336" height="48" version="1.1" viewBox="0 0 48 48" width="48" xmlns="http://www.w3.org/2000/svg"><path d="m8 12l-4 0 0 28c0 2.21 1.79 4 4 4l28 0 0-4-28 0 0-28z" fill="#d70a53"/><path d="M16 4C13.79 4 12 5.79 12 8L12 32C12 34.21 13.79 36 16 36L40 36C42.21 36 44 34.21 44 32L44 8C44 5.79 42.21 4 40 4L16 4zM29.451172 7C29.155869 7.067125 28.749555 7.021682 28.470703 7.123047L28.302734 7.099609C28.681028 7.050716 29.065533 7.032366 29.451172 7zM27.767578 7.177734C27.569709 7.288376 27.372974 7.375706 27.1875 7.505859 27.939143 7.326547 27.905458 7.577149 28.671875 7.476563 28.40252 7.516039 28.076692 7.623299 28.128906 7.664063 28.987871 7.763686 29.118682 7.399165 29.914063 7.664063L29.865234 7.427734C30.969815 7.826687 31.19986 7.759721 32.400391 8.396484 32.822298 8.416914 32.86496 8.137326 33.501953 8.396484 33.613972 8.593206 33.475975 8.628229 34.257813 9.09375 34.34504 9.059088 34.102517 8.838172 33.910156 8.662109 35.482324 9.501792 37.191819 11.293761 37.712891 13.210938 37.225103 12.311572 37.66171 13.67008 37.494141 13.599609 37.711522 14.186102 37.889817 14.792224 38 15.417969 37.855615 14.904013 37.540112 13.664747 36.988281 12.865234 36.94329 13.381256 36.278517 12.508962 36.642578 13.644531 36.920101 14.046698 36.698991 13.238316 37.041016 13.953125 37.046295 14.292855 37.174709 14.629469 37.25 15.072266 37.132472 15.052984 36.990377 14.584002 36.904297 14.714844 37.022973 15.271725 37.216642 15.56082 37.291016 15.603516 37.252911 15.696712 37.155094 15.517732 37.148438 15.896484 37.193888 16.768534 37.392673 16.399858 37.486328 16.441406 37.391296 16.87043 37.00766 17.375058 37.197266 18.113281 37.142863 17.889702 37.035879 17.664997 36.955078 17.453125 36.880246 18.083461 37.095753 18.206771 36.804688 18.970703 37.014493 18.282062 36.990609 17.659655 36.792969 17.958984 36.880426 18.937773 36.018132 19.689735 36.111328 20.308594L35.861328 19.962891C35.182558 20.946959 35.844202 20.504431 35.382813 21.25 35.552218 20.957098 35.29503 21.130524 35.515625 20.798828 35.369174 20.807321 34.862123 21.421896 34.398438 21.783203 32.574686 23.245188 30.396763 23.435784 28.289063 22.648438 28.207114 22.715695 28.666702 23.074509 29.003906 23.248047 29.806403 23.544851 30.715108 23.557648 31.429688 23.53125 29.884836 24.177195 26.935489 22.873826 25.970703 21.146484 26.189002 21.194001 26.936458 22.361175 27.496094 22.550781 27.165316 22.285654 26.908997 21.948638 26.671875 21.601563 27.118803 22.115289 27.662251 22.534519 28.255859 22.8125 28.236807 22.740307 28.278475 22.69736 28.289063 22.648438 28.29965 22.599515 28.279269 22.544022 28.138672 22.449219 26.351189 21.079971 25.295523 19.91685 25.662109 17.222656 25.934582 17.016982 26.007526 15.893673 26.632813 15.5 27.013861 14.658021 28.156451 13.882563 29.376953 13.863281 30.622934 13.794647 31.672984 14.527813 32.201172 15.21875 31.239599 14.322598 29.66661 14.050305 28.324219 14.714844 26.951527 15.332784 26.137184 16.844469 26.255859 18.349609 26.306819 18.274547 26.352392 18.320469 26.376953 18.134766 26.334946 21.060113 29.528064 23.204902 31.828125 22.123047L31.855469 22.183594C32.787889 21.929256 32.667667 21.719475 33.277344 21.300781 33.229828 21.399027 32.867522 21.649476 33.083984 21.654297 33.380789 21.575562 34.306297 20.713515 34.761719 20.308594 34.970607 19.857993 34.651605 20.064569 34.943359 19.498047L35.298828 19.318359C35.496494 18.746663 35.714849 18.423875 35.691406 17.759766L35.484375 18.195313C35.790591 17.268172 35.613095 16.259457 35.65625 15.386719L35.572266 15.363281C35.497433 13.167664 33.599393 10.834334 31.910156 10.044922 30.454369 9.372349 28.213221 9.257062 27.177734 9.763672 27.320283 9.637421 27.887809 9.583656 27.716797 9.486328 26.095506 9.64747 26.457611 10.051677 25.214844 10.369141 24.873966 10.698311 26.209176 10.106475 25.490234 10.533203 24.82363 10.71707 24.513132 10.41728 23.525391 11.439453 23.613307 11.581772 24.152808 11.019069 23.703125 11.583984 22.774837 11.468752 20.76933 13.706864 20.34375 14.449219L20.566406 14.488281C20.200967 15.403715 19.721671 15.986768 19.65625 16.535156 19.561906 17.882827 19.090161 20.343481 19.744141 21.099609L19.681641 21.730469C19.771394 21.909515 19.839612 22.091737 19.951172 22.259766L19.804688 22.271484C20.49264 24.441393 20.542854 22.31076 21.451172 24.564453 21.319412 24.520151 21.187995 24.472049 20.996094 24.212891 20.973139 24.410531 21.275065 25.003112 21.634766 25.466797L21.482422 25.640625C21.682587 26.004228 21.866983 26.083998 22.005859 26.210938 21.258454 25.803032 22.697972 27.555948 22.828125 27.779297L22.943359 27.574219C22.926832 27.868269 23.155074 28.24858 23.582031 28.775391L23.9375 28.761719C24.083951 29.051178 24.61855 29.573095 24.943359 29.597656L24.728516 29.880859C25.543867 30.1391 25.124751 30.223475 26.126953 30.578125L25.923828 30.220703C26.435259 30.664188 26.592987 31.050895 27.314453 31.390625 28.314819 31.739307 28.447845 31.600941 29.474609 31.894531 28.604397 31.869281 27.580531 31.878887 26.892578 31.632813 22.19903 30.361122 17.90473 24.856277 18.21875 19.185547 18.146443 18.037353 18.333791 16.602192 18.142578 16.316406 18.410919 15.44275 18.72237 14.377163 19.347656 13.109375 19.302435 13.024443 19.449655 13.358137 19.767578 12.816406 19.960398 12.392892 20.118238 11.927203 20.361328 11.515625L20.486328 11.486328C20.611431 10.760041 22.181309 9.644768 22.648438 9.083984L22.679688 9.298828C23.699106 8.342994 25.516201 7.702433 26.539063 7.246094 26.270492 7.543357 27.140456 7.215839 27.767578 7.177734zM28.386719 7.320313C29.121958 7.341201 29.06892 7.390564 28.828125 7.443359L28.818359 7.462891 28.673828 7.476563 28.828125 7.443359C28.863934 7.390793 28.606854 7.359795 28.386719 7.320313zM18.677734 12.330078C18.673603 12.576612 19.091722 12.086279 18.791016 12.763672 18.230003 13.155968 18.742008 12.925064 18.677734 12.330078zM18.220703 14.220703C18.171351 14.45025 18.148766 14.687327 18.019531 15.083984 18.057177 14.773407 17.863528 14.677272 18.220703 14.220703zM32.919922 16.976563C32.970939 16.975271 33.007328 17.103202 32.982422 17.474609 32.908049 17.773709 32.848383 17.289941 32.771484 17.25 32.804424 17.108255 32.868905 16.977854 32.919922 16.976563zM37.431641 18.228516C37.321458 19.075085 37.058642 19.909896 36.652344 20.673828 37.020078 19.949837 37.259993 19.170042 37.371094 18.380859L37.431641 18.228516zM32.654297 18.505859C32.591171 18.889662 32.411631 19.260568 32.166016 19.599609 32.196086 19.308085 31.481423 19.727115 32.310547 18.683594 32.238469 18.977644 31.539498 19.751117 32.310547 19.265625 32.450341 19.016337 32.599206 18.779479 32.654297 18.505859zM30.972656 20.099609C30.852374 20.213924 30.717106 20.333068 30.568359 20.449219 30.029842 20.366352 29.538676 20.158082 29.951172 20.152344 30.295033 20.183792 30.637288 20.181787 30.972656 20.099609zM25.765625 20.154297C25.860657 20.344591 25.946377 20.534742 26.089844 20.693359L26.216797 21.068359C26.043489 20.776146 25.856526 20.488747 25.765625 20.154297zM25.449219 20.71875C25.789637 21.375943 25.975551 21.576319 26.224609 22.0625 25.878452 21.774648 25.663673 21.376006 25.392578 21.007813L25.449219 20.71875z" fill="#d70a53"/></svg>
